automatic/svg/setting.svg

<?xml version="1.0" encoding="UTF-8" standalone="no"?>
<svg
   xmlns:dc="http://purl.org/dc/elements/1.1/"
   xmlns:cc="http://creativecommons.org/ns#"
   xmlns:rdf="http://www.w3.org/1999/02/22-rdf-syntax-ns#"
   xmlns:svg="http://www.w3.org/2000/svg"
   xmlns="http://www.w3.org/2000/svg"
   viewBox="0 0 320 320"
   height="320"
   width="320"
   xml:space="preserve"
   version="1.1"
   id="svg2"><metadata
     id="metadata8"><rdf:RDF><cc:Work
         rdf:about=""><dc:format>image/svg+xml</dc:format><dc:type
           rdf:resource="http://purl.org/dc/dcmitype/StillImage" /></cc:Work></rdf:RDF></metadata><defs
     id="defs6"><clipPath
       id="clipPath16"
       clipPathUnits="userSpaceOnUse"><path
         id="path18"
         d="M 0,256 256,256 256,0 0,0 0,256 Z" /></clipPath></defs><g
     transform="matrix(1.25,0,0,-1.25,0,320)"
     id="g10"><g
       id="g12"><g
         clip-path="url(#clipPath16)"
         id="g14"><g
           transform="translate(172,196)"
           id="g20"><path
             id="path22"
             style="fill:#f2f2f2;fill-opacity:1;fill-rule:nonzero;stroke:none"
             d="m 0,0 -88,0 c -17.645,0 -32,-14.355 -32,-32 0,-17.645 14.355,-32 32,-32 l 88,0 c 17.645,0 32,14.355 32,32 C 32,-14.355 17.645,0 0,0 M 0,-4 C 15.439,-4 28,-16.562 28,-32 28,-47.438 15.439,-60 0,-60 l -88,0 c -15.439,0 -28,12.562 -28,28 0,15.438 12.561,28 28,28 l 88,0" /></g><g
           transform="translate(172,188)"
           id="g24"><path
             id="path26"
             style="fill:#f2f2f2;fill-opacity:1;fill-rule:nonzero;stroke:none"
             d="m 0,0 c -13.233,0 -24,-10.767 -24,-24 0,-13.233 10.767,-24 24,-24 13.233,0 24,10.767 24,24 C 24,-10.767 13.233,0 0,0 m 0,-4 c 11.046,0 20,-8.954 20,-20 0,-11.046 -8.954,-20 -20,-20 -11.046,0 -20,8.954 -20,20 0,11.046 8.954,20 20,20" /></g><g
           transform="translate(172,124)"
           id="g28"><path
             id="path30"
             style="fill:#f2f2f2;fill-opacity:1;fill-rule:nonzero;stroke:none"
             d="m 0,0 -88,0 c -17.645,0 -32,-14.355 -32,-32 0,-17.645 14.355,-32 32,-32 l 88,0 c 17.645,0 32,14.355 32,32 C 32,-14.355 17.645,0 0,0 M 0,-4 C 15.439,-4 28,-16.562 28,-32 28,-47.438 15.439,-60 0,-60 l -88,0 c -15.439,0 -28,12.562 -28,28 0,15.438 12.561,28 28,28 l 88,0" /></g><g
           transform="translate(84,116)"
           id="g32"><path
             id="path34"
             style="fill:#f2f2f2;fill-opacity:1;fill-rule:nonzero;stroke:none"
             d="m 0,0 c -13.233,0 -24,-10.766 -24,-24 0,-13.233 10.767,-24 24,-24 13.233,0 24,10.767 24,24 C 24,-10.766 13.233,0 0,0 m 0,-4 c 11.046,0 20,-8.954 20,-20 0,-11.045 -8.954,-20 -20,-20 -11.046,0 -20,8.955 -20,20 0,11.046 8.954,20 20,20" /></g><path
           id="path36"
           style="fill:#f2f2f2;fill-opacity:1;fill-rule:nonzero;stroke:none"
           d="m 244,12 -232,0 0,232 232,0 0,-232 z m 0,236 -232,0 -4,0 0,-4 0,-232 0,-4 4,0 232,0 4,0 0,4 0,232 0,4 -4,0 z" /></g></g></g></svg>

<?xml version="1.0" encoding="UTF-8" standalone="no"?>
<svg
   xmlns:dc="http://purl.org/dc/elements/1.1/"
   xmlns:cc="http://creativecommons.org/ns#"
   xmlns:rdf="http://www.w3.org/1999/02/22-rdf-syntax-ns#"
   xmlns:svg="http://www.w3.org/2000/svg"
   xmlns="http://www.w3.org/2000/svg"
   viewBox="0 0 320 320"
   height="320"
   width="320"
   xml:space="preserve"
   id="svg2"
   version="1.1"><metadata
     id="metadata8"><rdf:RDF><cc:Work
         rdf:about=""><dc:format>image/svg+xml</dc:format><dc:type
           rdf:resource="http://purl.org/dc/dcmitype/StillImage" /></cc:Work></rdf:RDF></metadata><defs
     id="defs6"><clipPath
       id="clipPath18"
       clipPathUnits="userSpaceOnUse"><path
         id="path16"
         d="M 0,256 H 256 V 0 H 0 Z" /></clipPath></defs><g
     transform="matrix(1.3333333,0,0,-1.3333333,-10.666666,330.66666)"
     id="g10"><g
       id="g12"><g
         clip-path="url(#clipPath18)"
         id="g14"><g
           transform="translate(172,196)"
           id="g20"><path
             id="path22"
             style="fill:#f2f2f2;fill-opacity:1;fill-rule:nonzero;stroke:none"
             d="m 0,0 h -88 c -17.645,0 -32,-14.355 -32,-32 0,-17.645 14.355,-32 32,-32 H 0 c 17.645,0 32,14.355 32,32 C 32,-14.355 17.645,0 0,0 M 0,-4 C 15.439,-4 28,-16.562 28,-32 28,-47.438 15.439,-60 0,-60 h -88 c -15.439,0 -28,12.562 -28,28 0,15.438 12.561,28 28,28 H 0" /></g><g
           transform="translate(172,188)"
           id="g24"><path
             id="path26"
             style="fill:#f2f2f2;fill-opacity:1;fill-rule:nonzero;stroke:none"
             d="m 0,0 c -13.233,0 -24,-10.767 -24,-24 0,-13.233 10.767,-24 24,-24 13.233,0 24,10.767 24,24 C 24,-10.767 13.233,0 0,0 m 0,-4 c 11.046,0 20,-8.954 20,-20 0,-11.046 -8.954,-20 -20,-20 -11.046,0 -20,8.954 -20,20 0,11.046 8.954,20 20,20" /></g><g
           transform="translate(172,124)"
           id="g28"><path
             id="path30"
             style="fill:#f2f2f2;fill-opacity:1;fill-rule:nonzero;stroke:none"
             d="m 0,0 h -88 c -17.645,0 -32,-14.355 -32,-32 0,-17.645 14.355,-32 32,-32 H 0 c 17.645,0 32,14.355 32,32 C 32,-14.355 17.645,0 0,0 M 0,-4 C 15.439,-4 28,-16.562 28,-32 28,-47.438 15.439,-60 0,-60 h -88 c -15.439,0 -28,12.562 -28,28 0,15.438 12.561,28 28,28 H 0" /></g><g
           transform="translate(84,116)"
           id="g32"><path
             id="path34"
             style="fill:#f2f2f2;fill-opacity:1;fill-rule:nonzero;stroke:none"
             d="m 0,0 c -13.233,0 -24,-10.766 -24,-24 0,-13.233 10.767,-24 24,-24 13.233,0 24,10.767 24,24 C 24,-10.766 13.233,0 0,0 m 0,-4 c 11.046,0 20,-8.954 20,-20 0,-11.045 -8.954,-20 -20,-20 -11.046,0 -20,8.955 -20,20 0,11.046 8.954,20 20,20" /></g><path
           id="path36"
           style="fill:#f2f2f2;fill-opacity:1;fill-rule:nonzero;stroke:none"
           d="M 244,12 H 12 v 232 h 232 z m 0,236 H 12 8 V 244 12 8 h 4 232 4 v 4 232 4 z" /></g></g></g></svg>
